img/dfpeep-chicken.svg

<?xml version="1.0" encoding="UTF-8"?>
<svg width="233px" height="385px" viewBox="0 0 233 385" version="1.1" xmlns="http://www.w3.org/2000/svg" xmlns:xlink="http://www.w3.org/1999/xlink">
    <!-- Generator: Sketch 47.1 (45422) - http://www.bohemiancoding.com/sketch -->
    <title>chicken</title>
    <desc>Created with Sketch.</desc>
    <defs>
        <path d="M119.913421,53.1627529 C148.849531,62.8329038 170,93.5733113 170,130 C170,148.179502 164.732014,164.942712 155.857351,178.377332 C186.458329,195.31546 207,226.647914 207,262.5 C207,316.347763 160.661472,360 103.5,360 C46.3385284,360 0,316.347763 0,262.5 C0,228.345526 18.6424124,198.292805 46.8645125,180.879186 C36.9534707,167.051667 31,149.326126 31,130 C31,91.1712653 55.0318438,58.8034663 86.9086185,51.5290207 C87.3655661,40.5766908 86.2262502,32.1760338 83.4906709,26.3270497 C80.6037471,20.1544734 76.2333963,11.5983324 70.3796186,0.658626568 C87.1813658,19.8842725 98.2355014,35.5564488 103.542025,47.6751555 C103.230843,34.6538141 94.9190761,19.1250328 78.606725,1.08881173 C96.2720449,14.1957307 106.474199,23.2443287 109.213187,28.2346056 C110.530775,30.6351744 111.214539,34.1605053 111.264477,38.8105982 C112.334759,33.9385508 113.605069,29.3348932 114.360622,26.169422 C116.192414,18.4949374 123.043434,17.9872159 123.871757,17.705462 C129.024837,15.9526433 124.710938,17.67653 123.687267,19.0367541 C122.184688,21.0333368 119.28198,24.688062 118.175514,29.2526141 C115.084744,42.0030989 116.48527,45.0299096 119.913421,53.1627529 Z" id="path-1"></path>
        <path d="M103.067125,106.922763 C113.779714,123.729268 118.113047,134.729268 116.067125,139.922763 C112.998241,147.713007 93.3800771,148.332565 90.0671248,139.922763 C87.8584899,134.316229 92.1918232,123.316229 103.067125,106.922763 Z" id="path-2"></path>
        <ellipse id="path-3" cx="39" cy="32" rx="20" ry="14"></ellipse>
        <ellipse id="path-4" cx="133" cy="32" rx="20" ry="14"></ellipse>
        <path d="M180.517257,210.7951 C202.180282,178.413033 213.793999,156.312125 215.358407,144.492374 C217.705018,126.762747 212.006508,112.86673 203.285443,101.46815 C190.966523,85.3671108 178.803438,71.8724738 166.796188,60.984239 C161.192104,62.9736812 159.28675,67.8398041 161.080126,75.5826075 C161.847171,78.8942864 172.679057,88.5412801 176.191403,94.0702635 C179.324484,99.0022261 183.729611,106.625065 189.406783,116.938782 C190.191535,118.380877 190.434089,118.919886 190.134445,118.555807 C183.974804,111.071622 178.893623,105.158063 179.145436,107.482567 C180.059983,115.924806 180.059983,125.786978 179.145436,137.069082 L171.992933,171.732392 L161.080126,182.077703 L180.517257,210.7951 Z" id="path-5"></path>
    </defs>
    <g id="Page-1" stroke="none" stroke-width="1" fill="none" fill-rule="evenodd">
        <g id="chicken">
            <g id="chick" transform="translate(13.000000, 0.000000)">
                <g id="body">
                    <use fill="#F7D00F" fill-rule="evenodd" xlink:href="#path-1"></use>
                    <path stroke="#F7D00F" stroke-width="1" d="M123.751337,18.245034 C123.343973,18.3362774 122.602499,18.4985584 122.208939,18.6086894 C121.140737,18.9076075 120.139769,19.3246265 119.199457,19.9174271 C117.080583,21.2532279 115.558394,23.3048781 114.846961,26.2855041 C114.581953,27.3957822 113.096238,33.2167314 112.680179,34.9272129 C112.337108,36.3376309 112.031482,37.6494335 111.752833,38.9178791 L110.811614,43.2024208 L110.764506,38.8159676 C110.715373,34.2409005 110.046404,30.7918451 108.774869,28.4751829 C106.289627,23.9472157 97.4138693,15.8982552 82.1967696,4.40066382 C96.4589348,20.9759285 103.748563,35.3893311 104.041883,47.6632099 L104.102549,50.2017856 L103.08401,47.8757105 C98.1135156,36.5244059 88.0548088,22.0096984 72.9100865,4.34543793 C77.7294065,13.4356971 81.407027,20.6917733 83.9435827,26.1152221 C86.7186908,32.0487234 87.8681823,40.5244098 87.4081839,51.5498633 L87.3922612,51.9315051 L87.0198612,52.0164887 C54.969641,59.3305155 31.5,91.8715625 31.5,130 C31.5,148.724849 37.1367463,166.449101 47.2709027,180.587901 L47.5830277,181.023366 L47.1270659,181.304704 C18.2548705,199.119445 0.5,229.387225 0.5,262.5 C0.5,316.064724 46.6082157,359.5 103.5,359.5 C160.391784,359.5 206.5,316.064724 206.5,262.5 C206.5,227.710383 186.889491,196.1256 155.615212,178.814789 L155.142116,178.552923 L155.440158,178.101742 C164.509144,164.372952 169.5,147.624038 169.5,130 C169.5,94.3807954 148.98926,63.4067817 119.754942,53.6369726 L119.540502,53.5653089 L119.452681,53.356964 C117.701483,49.202476 117.220764,47.9695957 116.7117,46.1043559 C115.494714,41.6452533 115.720904,37.2563142 117.689587,29.1348233 C118.257652,26.7913601 119.304651,24.5472833 120.754287,22.2825151 C121.179741,21.6178279 121.627079,20.9707261 122.128312,20.2844693 C122.322011,20.019269 122.516901,19.7574017 122.748092,19.4505092 C122.843375,19.3240267 123.204251,18.8470613 123.287761,18.736096 C123.401632,18.5847884 123.545819,18.4318373 123.719212,18.2740315 C123.729818,18.2643781 123.740527,18.2547126 123.751337,18.245034 Z"></path>
                </g>
                <g id="beak" transform="translate(103.033562, 126.461382) scale(-1, -1) translate(-103.033562, -126.461382) ">
                    <use fill="#F5A623" fill-rule="evenodd" xlink:href="#path-2"></use>
                    <path stroke="#F5A623" stroke-width="1" d="M103.058813,107.84209 C92.5892027,123.739657 88.4370307,134.420667 90.532329,139.739501 C93.6081164,147.547269 112.627894,147.288954 115.601921,139.739501 C117.537152,134.82699 113.376181,124.136057 103.058813,107.84209 Z"></path>
                </g>
                <g id="binoculars" transform="translate(17.000000, 79.000000)">
                    <path d="M76.3815276,36.0099422 C80.2430698,35.3366474 84.1046121,35 87.9661544,35 C90.5373774,35 92.9129596,35.1492565 95.0928998,35.4477737 C95.0858964,35.5003959 95.0789796,35.5532447 95.0721498,35.6063221 C94.7298086,38.2667976 95.0721498,45.7268979 95.0721498,48.6815491 C95.0721498,61.0566109 98.482272,70.7713575 105.302619,77.8260803 C112.122965,84.8808031 121.579902,88.4081116 133.673712,88.4081116 C138.970614,88.4081116 143.681504,88.0096781 147.806525,87.2127991 C151.931545,86.4159201 156.00963,85.0565587 160.0409,83.1346741 L160.0409,69.7049866 C155.494002,71.7206217 151.240138,73.1620135 147.279181,74.0292053 C143.318224,74.8963972 139.040923,75.3299866 134.44715,75.3299866 C127.46274,75.3299866 122.048732,73.3026631 118.204962,69.2479553 C115.128515,66.0026783 113.208169,61.6389103 112.443893,56.156562 C118.369823,59.2215496 125.426151,61 133,61 C143.632851,61 153.245715,57.4948396 160.142803,51.8456116 L163.908087,51.8456116 L163.908087,48.2472651 C168.37218,43.2476814 171,37.1201524 171,30.5 C171,13.6553151 153.98682,0 133,0 C114.46592,0 99.0309524,10.6500221 95.6763194,24.7414546 C92.9332826,24.2471515 90.1902458,24 87.447209,24 C84.1176574,24 80.4367788,24.3641427 76.4045731,25.092428 C73.2246113,10.8272373 57.6876466,0 39,0 C18.0131795,0 1,13.6553151 1,30.5 C1,31.75587 1.09456906,32.9940116 1.27830327,34.2100876 C1.20176285,34.6575338 1.13227352,35.1224257 1.07000732,35.6063221 C0.727666123,38.2667976 1.07000732,45.7268979 1.07000732,48.6815491 C1.07000732,61.0566109 4.48012947,70.7713575 11.3004761,77.8260803 C18.1208227,84.8808031 27.5777594,88.4081116 39.6715698,88.4081116 C44.9684713,88.4081116 49.6793617,88.0096781 53.8043823,87.2127991 C57.9294029,86.4159201 62.0074872,85.0565587 66.0387573,83.1346741 L66.0387573,69.7049866 C61.4918596,71.7206217 57.2379959,73.1620135 53.2770386,74.0292053 C49.3160813,74.8963972 45.0387803,75.3299866 40.4450073,75.3299866 C33.4605974,75.3299866 28.046589,73.3026631 24.2028198,69.2479553 C21.1261489,66.0024427 19.2057473,61.6382765 18.4415838,56.1553677 C24.3679901,59.2210876 31.4251669,61 39,61 C57.6429185,61 73.1502192,50.2245297 76.3815276,36.0099422 Z" id="body" stroke="#4A4A4A" stroke-width="2" fill="#8D8D8D"></path>
                    <g id="inner-left">
                        <use fill="#FFFFFF" fill-rule="evenodd" xlink:href="#path-3"></use>
                        <ellipse stroke="#4A4A4A" stroke-width="2" cx="39" cy="32" rx="21" ry="15"></ellipse>
                    </g>
                    <g id="inner-right">
                        <use fill="#FFFFFF" fill-rule="evenodd" xlink:href="#path-4"></use>
                        <ellipse stroke="#4A4A4A" stroke-width="2" cx="133" cy="32" rx="21" ry="15"></ellipse>
                    </g>
                </g>
                <g id="wing">
                    <use fill="#F7D00F" fill-rule="evenodd" xlink:href="#path-5"></use>
                    <path stroke="#F7D00F" stroke-width="1" d="M180.514639,209.899204 C201.868229,177.91964 213.322023,156.067449 214.862729,144.426768 C216.988441,128.366128 212.681696,114.572057 202.88834,101.771974 C190.663568,85.7939889 178.59522,72.3894043 166.684461,61.5581735 C161.566039,63.5126176 159.856813,68.0851462 161.567231,75.4697851 C161.900546,76.9088584 163.491454,78.7989715 169.527122,85.3375018 C169.720926,85.5474528 169.896014,85.7373725 170.063363,85.919211 C173.507386,89.6614267 175.402231,91.8955169 176.613444,93.8021572 C179.753317,98.7448107 184.163011,106.375552 189.845967,116.699789 C190.244201,117.431602 190.505176,117.934878 190.633223,118.219427 C190.778452,118.542157 190.800609,118.60702 190.732843,118.814665 C190.492482,119.156569 190.492482,119.156569 190.118219,119.1488 C189.955851,119.0813 189.955851,119.0813 189.899162,119.03232 C189.849901,118.990801 189.803654,118.940699 189.748383,118.873544 C186.049283,114.379004 183.645325,111.558565 181.872428,109.684547 C180.885038,108.640838 180.140554,107.947553 179.664058,107.629304 C180.560683,116.060759 180.553448,125.88746 179.63512,137.170125 L172.450885,171.987222 L161.731962,182.148731 L180.514639,209.899204 Z"></path>
                </g>
                <polygon id="wing-border-cover" fill="#F7D00F" points="159.280067 183.309539 171.438842 180.069079 173.533716 189.720061 167.05719 193.130658"></polygon>
                <circle id="right-eye" stroke="#4794ED" fill="#74AAE9" cx="147.5" cy="112.5" r="4.5"></circle>
                <circle id="left-eye" stroke="#4794ED" fill="#74AAE9" cx="58.5" cy="112.5" r="4.5"></circle>
            </g>
            <g id="cracked-egg" transform="translate(0.000000, 74.000000)">
                <g id="Group-Copy"></g>
                <path d="M226.608323,114.518057 C234.376677,146.354174 233.762936,178.422384 229,207 C218,274.1 172.4,309.6 116.5,309.6 C60.6,309.6 15.1,274.1 4,207 C-2.02201038,170.427303 -1.24845155,128.083765 15.1532611,87.8909874 L46.1171875,130.828125 L63.1328125,104.226562 L85.65625,130.828125 L106.8125,114.890625 L124.8125,167.65625 L152.179688,104.226562 L174.359375,122.640625 L189.289063,114.890625 L220.734375,122.640625 L226.608323,114.518057 Z" id="Combined-Shape" stroke="#FFE0B3" fill="#FFE0B3" fill-rule="nonzero"></path>
            </g>
        </g>
    </g>
</svg>

<svg width="233" height="385" viewBox="0 0 233 385" xmlns="http://www.w3.org/2000/svg" xmlns:xlink="http://www.w3.org/1999/xlink"><title>chicken</title><defs><path d="M119.913 53.163C148.85 62.833 170 93.573 170 130c0 18.18-5.268 34.943-14.143 48.377C186.457 195.315 207 226.647 207 262.5c0 53.848-46.34 97.5-103.5 97.5S0 316.348 0 262.5c0-34.154 18.642-64.207 46.865-81.62C36.953 167.05 31 149.325 31 130c0-38.83 24.032-71.197 55.91-78.47.456-10.953-.684-19.354-3.42-25.203-2.886-6.173-7.257-14.73-13.11-25.668 16.8 19.224 27.856 34.896 33.162 47.015-.31-13.02-8.623-28.55-24.935-46.586 17.665 13.106 27.867 22.154 30.606 27.145 1.318 2.4 2.002 5.926 2.05 10.576 1.072-4.87 2.342-9.475 3.098-12.64 1.832-7.675 8.683-8.183 9.512-8.465 5.153-1.752.84-.028-.185 1.332-1.502 1.996-4.405 5.65-5.51 10.216-3.092 12.75-1.692 15.777 1.736 23.91z" id="a"/><path d="M103.067 106.923c10.713 16.806 15.046 27.806 13 33-3.07 7.79-22.687 8.41-26 0-2.21-5.607 2.125-16.607 13-33z" id="b"/><ellipse id="c" cx="39" cy="32" rx="20" ry="14"/><ellipse id="d" cx="133" cy="32" rx="20" ry="14"/><path d="M180.517 210.795c21.663-32.382 33.277-54.483 34.84-66.303 2.348-17.73-3.35-31.625-12.072-43.024-12.318-16.1-24.482-29.596-36.49-40.484-5.603 1.99-7.508 6.856-5.715 14.6.767 3.31 11.6 12.957 15.11 18.486 3.134 4.932 7.54 12.555 13.217 22.87.785 1.44 1.027 1.98.727 1.616-6.16-7.484-11.24-13.398-10.99-11.073.916 8.442.916 18.304 0 29.586l-7.15 34.662-10.914 10.346 19.437 28.717z" id="e"/></defs><g fill="none" fill-rule="evenodd"><g transform="translate(13)"><use fill="#F7D00F" xlink:href="#a"/><path stroke="#F7D00F" d="M123.75 18.245c-.406.09-1.148.254-1.54.364-1.07.298-2.07.715-3.01 1.307-2.12 1.336-3.642 3.388-4.353 6.37-.265 1.11-1.75 6.93-2.167 8.64-.343 1.41-.65 2.722-.927 3.99l-.94 4.285-.048-4.386c-.05-4.575-.72-8.024-1.99-10.34-2.485-4.53-11.36-12.578-26.578-24.075 14.262 16.576 21.552 30.99 21.845 43.263l.06 2.54-1.018-2.327c-4.97-11.352-15.03-25.866-30.174-43.53 4.82 9.09 8.497 16.346 11.034 21.77 2.775 5.933 3.924 14.408 3.464 25.434l-.016.382-.372.084C54.97 59.33 31.5 91.872 31.5 130c0 18.725 5.637 36.45 15.77 50.588l.313.435-.456.282C18.255 199.12.5 229.387.5 262.5c0 53.565 46.108 97 103 97s103-43.435 103-97c0-34.79-19.61-66.374-50.885-83.685l-.473-.262.298-.45c9.07-13.73 14.06-30.48 14.06-48.103 0-35.62-20.51-66.593-49.745-76.363l-.214-.072-.087-.208c-1.752-4.155-2.232-5.387-2.74-7.253-1.218-4.46-.992-8.848.977-16.97.568-2.343 1.615-4.587 3.064-6.85.426-.666.873-1.313 1.374-2 .194-.265.39-.527.62-.833l.54-.714c.114-.15.258-.304.43-.462l.033-.03z"/><g transform="rotate(180 103.034 126.46)"><use fill="#F5A623" xlink:href="#b"/><path stroke="#F5A623" d="M103.06 107.842c-10.47 15.898-14.623 26.58-12.528 31.898 3.076 7.807 22.096 7.55 25.07 0 1.935-4.913-2.226-15.604-12.543-31.898z"/></g><path d="M93.382 115.01c3.86-.673 7.723-1.01 11.584-1.01 2.57 0 4.947.15 7.127.448l-.02.158c-.343 2.66 0 10.12 0 13.076 0 12.375 3.41 22.09 10.23 29.144 6.82 7.055 16.277 10.582 28.37 10.582 5.298 0 10.01-.398 14.134-1.195 4.125-.797 8.203-2.156 12.234-4.078v-13.43c-4.546 2.016-8.8 3.457-12.76 4.324-3.962.866-8.24 1.3-12.833 1.3-6.984 0-12.398-2.027-16.242-6.082-3.076-3.245-4.997-7.61-5.76-13.09C135.37 138.22 142.424 140 150 140c10.633 0 20.246-3.505 27.143-9.154h3.765v-3.6C185.372 122.25 188 116.12 188 109.5c0-16.845-17.013-30.5-38-30.5-18.534 0-33.97 10.65-37.324 24.74-2.743-.493-5.486-.74-8.23-.74-3.328 0-7.01.364-11.04 1.092C90.225 89.827 74.687 79 56 79c-20.987 0-38 13.655-38 30.5 0 1.256.095 2.494.278 3.71-.076.448-.146.912-.208 1.396-.342 2.66 0 10.12 0 13.076 0 12.375 3.41 22.09 10.23 29.144 6.82 7.055 16.278 10.582 28.372 10.582 5.296 0 10.007-.398 14.132-1.195s8.203-2.156 12.235-4.078v-13.43c-4.548 2.016-8.802 3.457-12.763 4.324-3.96.866-8.238 1.3-12.832 1.3-6.984 0-12.398-2.027-16.242-6.082-3.077-3.246-4.997-7.61-5.76-13.093C41.367 138.22 48.424 140 56 140c18.643 0 34.15-10.775 37.382-24.99z" stroke="#4A4A4A" stroke-width="2" fill="#8D8D8D"/><g transform="translate(17 79)"><use fill="#FFF" xlink:href="#c"/><ellipse stroke="#4A4A4A" stroke-width="2" cx="39" cy="32" rx="21" ry="15"/></g><g transform="translate(17 79)"><use fill="#FFF" xlink:href="#d"/><ellipse stroke="#4A4A4A" stroke-width="2" cx="133" cy="32" rx="21" ry="15"/></g><use fill="#F7D00F" xlink:href="#e"/><path stroke="#F7D00F" d="M180.515 209.9c21.353-31.98 32.807-53.833 34.348-65.473 2.125-16.06-2.18-29.855-11.975-42.655-12.224-15.978-24.293-29.383-36.204-40.214-5.118 1.955-6.827 6.527-5.117 13.912.334 1.44 1.924 3.33 7.96 9.868l.536.58c3.444 3.743 5.34 5.978 6.55 7.884 3.14 4.943 7.55 12.574 13.233 22.898.398.732.66 1.235.787 1.52.145.322.168.387.1.595-.24.342-.24.342-.615.334-.162-.07-.162-.07-.22-.118-.048-.04-.094-.09-.15-.158-3.7-4.495-6.103-7.315-7.876-9.19-.987-1.043-1.73-1.736-2.208-2.055.897 8.43.89 18.257-.03 29.54l-7.183 34.817-10.718 10.162 18.783 27.75z"/><path fill="#F7D00F" d="M159.28 183.31l12.16-3.24 2.094 9.65-6.477 3.41"/><circle stroke="#4794ED" fill="#74AAE9" cx="147.5" cy="112.5" r="4.5"/><circle stroke="#4794ED" fill="#74AAE9" cx="58.5" cy="112.5" r="4.5"/></g><path d="M226.608 188.518c7.77 31.836 7.155 63.904 2.392 92.482-11 67.1-56.6 102.6-112.5 102.6S15.1 348.1 4 281c-6.022-36.573-5.248-78.916 11.153-119.11l30.964 42.938 17.016-26.6 22.523 26.6 21.156-15.937 18 52.766 27.368-63.43 22.18 18.415 14.93-7.75 31.444 7.75 5.874-8.122z" stroke="#FFE0B3" fill="#FFE0B3" fill-rule="nonzero"/></g></svg>
